X: 34901
T: Rochelle Rudolph
R: reel
M: 4/4
K: Dmajor
|:A2|D2 FD ADFD|Adcd fdBG|E2 GE BEGE|Bged cAGE|
D2 FD ADFD|Adcd fd B2|Bgge cAAF|GBAF D2:|
|:(3ABc|d2 fd adfd|dfaf ecAF|G2 BG dGBG|Gged cAAc|
d2 fd adfd|dfaf g2 g2|(3fgf (3efe dfed|cAGE FD D2:|
|:A2|defg a3f|gbag fAAB|cdef g2 ag|fged cAAc|
defg a3f|gbbg a3g|(3fgf df (3efe ce|Adec d2:|

